X:960
T:Reel 960
L:1/8
M: 4/4
K: A Dorian
A2eABede|e2dBedBA|G2GEDGGA|B2dedBGA|B2edBAGB|A2GEFEDE|G2EGBcdB|AGEGA2BE:||:A2eaaeba|gabgafge|dB(3BBBdBBd|edefg3b|ageaa2ga|babbaged|cedBGEEG|AGEGA2ed:|.abc